T: Gan Ainm
M: 4/4
L: 1/8
K: Dmin
|AFGE FEDC|A,CDE D3 A||ABcB AF (3DEF|ECCD EFGB|Adce dcAF|GFEG FDDA||ABcB Adfa|gecd efge|fdec dcAF|GECE D3 A|
